public/logos/9E.svg

<?xml version="1.0" encoding="UTF-8"?>
<svg xmlns="http://www.w3.org/2000/svg" xmlns:xlink="http://www.w3.org/1999/xlink" width="147.93pt" height="59pt" viewBox="0 0 147.93 59" version="1.1">
<defs>
<clipPath id="clip1">
  <path d="M 62 3 L 147.929688 3 L 147.929688 40 L 62 40 Z M 62 3 "/>
</clipPath>
</defs>
<g id="surface1">
<path style=" stroke:none;fill-rule:nonzero;fill:rgb(83.38623%,11.16333%,17.56897%);fill-opacity:1;" d="M 113.398438 0 C 115.117188 0.324219 120.429688 1.378906 122.148438 1.6875 C 122.265625 1.710938 122.382812 1.75 122.542969 1.792969 C 121.882812 2.609375 121.175781 3.335938 120.460938 4.058594 C 115.859375 8.683594 110.820312 12.796875 105.601562 16.695312 C 98.488281 22.007812 91.058594 26.824219 83.207031 30.972656 C 77.429688 34.023438 71.484375 36.671875 65.195312 38.503906 C 63.8125 38.90625 62.410156 39.253906 60.996094 39.550781 L 60.804688 39.636719 C 60.78125 39.84375 60.621094 39.890625 60.460938 39.949219 C 60.132812 40.058594 59.800781 40.046875 59.464844 40.046875 C 58.875 40.054688 58.28125 40.050781 57.691406 40.117188 C 57.382812 40.152344 57.015625 40.253906 56.769531 39.910156 C 58.089844 39.703125 59.414062 39.53125 60.722656 39.242188 C 64.933594 38.292969 68.902344 36.714844 72.730469 34.75 C 79.492188 31.277344 85.585938 26.828125 91.394531 21.960938 C 95.769531 18.292969 99.914062 14.378906 103.914062 10.3125 "/>
<path style=" stroke:none;fill-rule:nonzero;fill:rgb(66.706848%,10.443115%,17.233276%);fill-opacity:1;" d="M 56.769531 39.914062 C 58.109375 39.769531 59.476562 39.972656 60.800781 39.636719 C 61.21875 39.71875 61.632812 39.640625 62.042969 39.597656 C 63.328125 39.464844 64.609375 39.320312 65.890625 39.179688 L 66.085938 39.203125 C 66.128906 39.308594 66.035156 39.371094 65.953125 39.40625 C 65.679688 39.519531 65.386719 39.542969 65.101562 39.59375 C 64.335938 39.730469 63.574219 39.886719 62.804688 39.996094 C 60.296875 40.390625 57.789062 40.746094 55.261719 40.996094 C 51.226562 41.398438 47.171875 41.617188 43.117188 41.734375 C 38.984375 41.851562 34.851562 41.863281 30.714844 41.789062 C 25.445312 41.691406 20.175781 41.484375 14.910156 41.175781 C 10.089844 40.890625 5.269531 40.554688 0.457031 40.121094 C 0.304688 40.109375 0.152344 40.105469 0 40.097656 L 0 33.980469 C 3.628906 34.730469 7.269531 35.421875 10.925781 36.039062 C 14.832031 36.703125 18.753906 37.300781 22.683594 37.828125 C 26.585938 38.351562 30.496094 38.796875 34.414062 39.15625 C 37.941406 39.480469 41.472656 39.71875 45.011719 39.867188 C 48.351562 40.011719 51.695312 40.03125 55.039062 39.988281 C 55.617188 39.980469 56.195312 39.941406 56.769531 39.914062 "/>
<g clip-path="url(#clip1)" clip-rule="nonzero">
<path style=" stroke:none;fill-rule:nonzero;fill:rgb(83.38623%,11.16333%,17.56897%);fill-opacity:1;" d="M 133.996094 3.128906 C 134.863281 3.1875 136.949219 3.394531 137.113281 3.40625 C 141.109375 3.769531 142.503906 3.84375 146.5 4.195312 C 146.9375 4.234375 147.480469 4.289062 147.929688 4.328125 C 147.492188 4.6875 147.617188 4.589844 147.492188 4.6875 C 141.789062 9.039062 135.769531 12.90625 129.566406 16.503906 C 118.757812 22.765625 107.480469 28.027344 95.683594 32.148438 C 86.769531 35.261719 77.671875 37.671875 68.351562 39.203125 C 66.507812 39.503906 64.664062 39.8125 62.804688 39.996094 C 63.714844 39.785156 64.625 39.578125 65.535156 39.367188 C 65.667969 39.335938 65.796875 39.289062 65.921875 39.25 L 65.921875 39.210938 L 65.890625 39.179688 C 67.082031 38.949219 68.277344 38.730469 69.464844 38.488281 C 76.609375 37.019531 83.476562 34.691406 90.144531 31.753906 C 100.230469 27.308594 109.585938 21.601562 118.519531 15.175781 "/>
</g>
<path style=" stroke:none;fill-rule:nonzero;fill:rgb(10.531616%,18.652344%,31.820679%);fill-opacity:1;" d="M 89.078125 59 L 87.050781 59 C 86.738281 58.917969 86.429688 58.84375 86.121094 58.753906 C 83.039062 57.863281 81.164062 55.074219 81.335938 51.636719 C 81.5 48.261719 84.242188 45.449219 87.539062 45.273438 C 87.691406 45.265625 87.839844 45.261719 87.988281 45.261719 C 91.539062 45.261719 94.277344 47.539062 94.796875 50.953125 C 95.40625 54.9375 92.851562 58.390625 89.246094 58.929688 L 89.078125 59 M 88.089844 46.648438 C 87.695312 46.648438 87.292969 46.691406 86.894531 46.785156 C 84.480469 47.347656 82.886719 49.46875 82.859375 52.125 C 82.898438 52.492188 82.921875 52.859375 82.980469 53.222656 C 83.433594 55.902344 85.730469 57.648438 88.144531 57.648438 C 89.09375 57.648438 90.066406 57.375 90.949219 56.78125 C 92.953125 55.429688 93.574219 53.425781 93.230469 51.09375 C 92.847656 48.480469 90.609375 46.648438 88.089844 46.648438 "/>
<path style=" stroke:none;fill-rule:nonzero;fill:rgb(10.531616%,18.652344%,31.820679%);fill-opacity:1;" d="M 107.722656 58.792969 C 107.464844 58.792969 107.210938 58.789062 106.960938 58.773438 C 106.835938 58.765625 106.695312 58.59375 106.601562 58.46875 C 105.484375 56.980469 104.363281 55.496094 103.269531 53.996094 C 103.070312 53.722656 102.863281 53.617188 102.542969 53.617188 C 102.53125 53.617188 102.519531 53.617188 102.507812 53.617188 C 102.015625 53.628906 101.523438 53.632812 101.023438 53.632812 C 100.433594 53.632812 99.835938 53.628906 99.21875 53.628906 L 99.21875 58.761719 L 97.714844 58.761719 L 97.714844 45.527344 L 97.804688 45.480469 C 99.957031 45.496094 102.105469 45.496094 104.253906 45.546875 C 104.734375 45.558594 105.226562 45.707031 105.683594 45.871094 C 107.371094 46.476562 108.261719 47.828125 108.210938 49.636719 C 108.160156 51.328125 107.132812 52.625 105.40625 53.164062 C 105.175781 53.234375 104.9375 53.292969 104.632812 53.378906 C 105.996094 55.191406 107.3125 56.945312 108.691406 58.789062 C 108.347656 58.789062 108.027344 58.792969 107.722656 58.792969 M 101.894531 46.882812 C 101.148438 46.882812 100.402344 46.894531 99.65625 46.894531 C 99.511719 46.894531 99.367188 46.90625 99.203125 46.914062 C 99.203125 48.648438 99.203125 50.324219 99.203125 52 C 99.203125 52.070312 99.214844 52.144531 99.226562 52.257812 C 100.089844 52.257812 100.9375 52.273438 101.777344 52.273438 C 102.421875 52.273438 103.058594 52.261719 103.695312 52.230469 C 104.285156 52.203125 104.90625 51.988281 105.433594 51.707031 C 106.359375 51.21875 106.746094 50.355469 106.683594 49.320312 C 106.617188 48.300781 106.089844 47.570312 105.144531 47.21875 C 104.632812 47.03125 104.074219 46.925781 103.53125 46.90625 C 102.984375 46.890625 102.441406 46.882812 101.894531 46.882812 "/>
<path style=" stroke:none;fill-rule:nonzero;fill:rgb(10.531616%,18.652344%,31.820679%);fill-opacity:1;" d="M 23.414062 58.800781 C 22.953125 58.800781 22.574219 58.621094 22.210938 58.144531 C 19.683594 54.855469 17.097656 51.613281 14.53125 48.351562 C 14.445312 48.246094 14.355469 48.148438 14.1875 47.953125 L 14.1875 58.765625 L 12.730469 58.765625 L 12.730469 45.464844 C 12.96875 45.464844 13.199219 45.453125 13.425781 45.453125 C 13.585938 45.453125 13.746094 45.460938 13.90625 45.480469 C 14.070312 45.5 14.246094 45.65625 14.359375 45.800781 C 16.425781 48.417969 18.484375 51.039062 20.542969 53.660156 C 21.160156 54.445312 21.777344 55.226562 22.472656 56.105469 L 22.472656 45.492188 L 23.917969 45.492188 L 23.917969 58.742188 C 23.738281 58.777344 23.570312 58.800781 23.414062 58.800781 "/>
<path style=" stroke:none;fill-rule:nonzero;fill:rgb(10.531616%,18.652344%,31.820679%);fill-opacity:1;" d="M 31.097656 58.804688 C 30.738281 58.804688 30.378906 58.800781 30.023438 58.800781 C 29.664062 58.796875 29.304688 58.796875 28.949219 58.796875 C 28.675781 58.796875 28.40625 58.796875 28.132812 58.800781 C 28.125 58.800781 28.117188 58.800781 28.113281 58.800781 C 27.769531 58.800781 27.695312 58.667969 27.695312 58.34375 C 27.707031 56.257812 27.703125 54.167969 27.703125 52.082031 C 27.703125 50.039062 27.710938 47.996094 27.695312 45.953125 C 27.691406 45.59375 27.78125 45.453125 28.140625 45.453125 C 28.15625 45.453125 28.167969 45.453125 28.179688 45.457031 C 28.597656 45.464844 29.015625 45.46875 29.433594 45.46875 C 29.625 45.46875 29.816406 45.46875 30.007812 45.46875 C 30.195312 45.46875 30.386719 45.464844 30.574219 45.464844 C 31.496094 45.464844 32.417969 45.480469 33.332031 45.566406 C 35.957031 45.816406 37.976562 47.117188 38.9375 49.644531 C 39.898438 52.175781 39.523438 54.582031 37.667969 56.632812 C 36.34375 58.101562 34.589844 58.722656 32.644531 58.785156 C 32.128906 58.800781 31.613281 58.804688 31.097656 58.804688 M 29.742188 46.890625 C 29.582031 46.890625 29.417969 46.894531 29.246094 46.894531 L 29.246094 57.347656 C 30.082031 57.347656 30.902344 57.378906 31.710938 57.378906 C 32.195312 57.378906 32.675781 57.367188 33.160156 57.332031 C 35.832031 57.140625 37.703125 55.085938 37.84375 52.308594 C 37.976562 49.71875 36.191406 47.40625 33.613281 47.023438 C 32.882812 46.914062 32.136719 46.902344 31.386719 46.902344 C 31.292969 46.902344 31.199219 46.902344 31.105469 46.902344 C 31.011719 46.902344 30.917969 46.902344 30.828125 46.902344 C 30.546875 46.902344 30.265625 46.902344 29.984375 46.894531 C 29.90625 46.894531 29.824219 46.890625 29.742188 46.890625 "/>
<path style=" stroke:none;fill-rule:nonzero;fill:rgb(10.531616%,18.652344%,31.820679%);fill-opacity:1;" d="M 9.636719 58.761719 L 0 58.761719 L 0 45.496094 L 9.546875 45.496094 L 9.546875 46.851562 L 1.488281 46.851562 L 1.488281 51.382812 L 8.699219 51.382812 L 8.699219 52.761719 L 1.460938 52.761719 L 1.460938 53.589844 C 1.460938 54.679688 1.480469 55.773438 1.449219 56.863281 C 1.4375 57.292969 1.542969 57.4375 1.984375 57.4375 C 1.988281 57.4375 1.996094 57.4375 2 57.4375 C 3.152344 57.425781 4.300781 57.421875 5.449219 57.421875 C 6.652344 57.421875 7.855469 57.425781 9.054688 57.425781 L 9.636719 57.425781 L 9.636719 58.761719 "/>
<path style=" stroke:none;fill-rule:nonzero;fill:rgb(10.531616%,18.652344%,31.820679%);fill-opacity:1;" d="M 52.246094 58.757812 L 42.617188 58.757812 L 42.617188 45.484375 L 52.15625 45.484375 L 52.15625 46.847656 L 44.101562 46.847656 L 44.101562 51.382812 L 51.3125 51.382812 L 51.3125 52.761719 L 44.109375 52.761719 C 44.09375 52.949219 44.074219 53.082031 44.074219 53.214844 C 44.070312 54.460938 44.089844 55.707031 44.066406 56.949219 C 44.058594 57.339844 44.1875 57.429688 44.546875 57.429688 C 44.550781 57.429688 44.554688 57.429688 44.5625 57.429688 C 45.707031 57.425781 46.851562 57.421875 47.996094 57.421875 C 49.21875 57.421875 50.441406 57.425781 51.664062 57.425781 L 52.246094 57.425781 L 52.246094 58.757812 "/>
<path style=" stroke:none;fill-rule:nonzero;fill:rgb(10.531616%,18.652344%,31.820679%);fill-opacity:1;" d="M 55.382812 58.800781 C 55.359375 58.800781 55.332031 58.800781 55.304688 58.796875 C 55.167969 58.789062 55.03125 58.785156 54.890625 58.785156 C 54.667969 58.785156 54.433594 58.792969 54.167969 58.792969 C 54.871094 57.230469 55.53125 55.765625 56.195312 54.300781 C 57.472656 51.476562 58.761719 48.660156 60.019531 45.832031 C 60.1875 45.457031 60.394531 45.390625 60.769531 45.351562 C 60.84375 45.34375 60.910156 45.339844 60.972656 45.339844 C 61.507812 45.339844 61.777344 45.605469 62.019531 46.152344 C 63.832031 50.246094 65.695312 54.320312 67.539062 58.402344 C 67.589844 58.507812 67.625 58.621094 67.6875 58.792969 C 67.414062 58.792969 67.152344 58.796875 66.898438 58.796875 C 66.6875 58.796875 66.480469 58.792969 66.273438 58.777344 C 66.15625 58.765625 66.007812 58.597656 65.949219 58.464844 C 65.519531 57.53125 65.101562 56.59375 64.699219 55.648438 C 64.589844 55.390625 64.457031 55.28125 64.164062 55.28125 C 64.164062 55.28125 64.160156 55.28125 64.15625 55.28125 C 63.074219 55.285156 61.992188 55.289062 60.910156 55.289062 C 59.824219 55.289062 58.742188 55.285156 57.65625 55.28125 C 57.65625 55.28125 57.652344 55.28125 57.652344 55.28125 C 57.359375 55.28125 57.234375 55.394531 57.125 55.652344 C 56.726562 56.582031 56.285156 57.496094 55.890625 58.425781 C 55.78125 58.691406 55.636719 58.800781 55.382812 58.800781 M 60.921875 47.15625 C 59.894531 49.453125 58.90625 51.652344 57.90625 53.890625 L 63.917969 53.890625 C 62.917969 51.640625 61.9375 49.4375 60.921875 47.15625 "/>
<path style=" stroke:none;fill-rule:nonzero;fill:rgb(10.531616%,18.652344%,31.820679%);fill-opacity:1;" d="M 73.917969 58.898438 C 73.894531 58.898438 73.867188 58.894531 73.839844 58.894531 C 73.660156 58.886719 73.519531 58.882812 73.410156 58.882812 C 73.398438 58.882812 73.390625 58.882812 73.378906 58.882812 C 73.367188 58.882812 73.359375 58.882812 73.347656 58.882812 C 72.914062 58.882812 73.019531 58.867188 72.699219 58.121094 C 70.949219 54.046875 69.214844 49.96875 67.476562 45.890625 C 67.425781 45.769531 67.382812 45.640625 67.316406 45.464844 C 67.605469 45.464844 67.882812 45.457031 68.148438 45.457031 C 68.363281 45.457031 68.570312 45.460938 68.777344 45.480469 C 68.914062 45.496094 69.074219 45.710938 69.140625 45.867188 C 70.414062 48.925781 71.671875 51.992188 72.9375 55.050781 C 73.183594 55.644531 73.433594 56.234375 73.714844 56.914062 C 74.1875 55.78125 74.625 54.738281 75.058594 53.695312 C 76.136719 51.085938 77.21875 48.480469 78.289062 45.871094 C 78.398438 45.601562 78.523438 45.453125 78.804688 45.453125 C 78.832031 45.453125 78.859375 45.453125 78.890625 45.457031 C 79.03125 45.46875 79.171875 45.472656 79.316406 45.472656 C 79.550781 45.472656 79.792969 45.464844 80.0625 45.464844 C 80 45.644531 79.960938 45.785156 79.902344 45.917969 C 78.128906 50.082031 76.347656 54.242188 74.582031 58.40625 C 74.4375 58.75 74.269531 58.894531 73.917969 58.898438 "/>
<path style=" stroke:none;fill-rule:nonzero;fill:rgb(10.531616%,18.652344%,31.820679%);fill-opacity:1;" d="M 144.6875 58.820312 C 144.132812 58.820312 143.730469 58.550781 143.355469 58.019531 C 142.285156 56.519531 141.117188 55.085938 140.007812 53.617188 C 139.8125 53.363281 139.613281 53.261719 139.296875 53.261719 C 139.289062 53.261719 139.285156 53.261719 139.277344 53.261719 C 138.699219 53.269531 138.121094 53.273438 137.535156 53.273438 C 136.835938 53.273438 136.128906 53.269531 135.40625 53.269531 L 135.40625 58.753906 L 134.425781 58.753906 L 134.425781 45.449219 C 134.839844 45.46875 135.253906 45.472656 135.667969 45.472656 C 136.140625 45.472656 136.613281 45.464844 137.085938 45.457031 C 137.558594 45.445312 138.03125 45.4375 138.503906 45.4375 C 139.523438 45.4375 140.542969 45.480469 141.558594 45.660156 C 142.558594 45.835938 143.4375 46.320312 144.0625 47.167969 C 145.3125 48.855469 144.839844 51.339844 143.015625 52.375 C 142.386719 52.730469 141.664062 52.925781 140.941406 53.210938 C 142.324219 55.007812 143.753906 56.855469 145.21875 58.757812 C 145.09375 58.78125 145.0625 58.785156 145.03125 58.789062 C 144.910156 58.8125 144.796875 58.820312 144.6875 58.820312 M 135.472656 46.445312 L 135.421875 46.476562 L 135.421875 52.339844 C 136.394531 52.339844 137.359375 52.351562 138.320312 52.351562 C 139.085938 52.351562 139.847656 52.34375 140.605469 52.320312 C 141.097656 52.308594 141.601562 52.117188 142.058594 51.917969 C 143.28125 51.375 143.890625 50.238281 143.722656 48.925781 C 143.5625 47.699219 142.71875 46.707031 141.308594 46.578125 C 139.375 46.402344 137.417969 46.476562 135.472656 46.445312 "/>
<path style=" stroke:none;fill-rule:nonzero;fill:rgb(10.531616%,18.652344%,31.820679%);fill-opacity:1;" d="M 125.726562 58.8125 C 125.300781 58.8125 125.230469 58.65625 124.9375 58.011719 C 124.554688 57.15625 124.152344 56.3125 123.78125 55.453125 C 123.664062 55.179688 123.519531 55.066406 123.210938 55.066406 C 123.207031 55.066406 123.207031 55.066406 123.203125 55.066406 C 122.027344 55.070312 120.855469 55.074219 119.679688 55.074219 C 118.503906 55.074219 117.328125 55.070312 116.152344 55.0625 C 116.152344 55.0625 116.152344 55.0625 116.148438 55.0625 C 115.832031 55.0625 115.695312 55.191406 115.578125 55.457031 C 115.199219 56.332031 114.800781 57.191406 114.410156 58.058594 C 114.144531 58.640625 114.070312 58.808594 113.691406 58.808594 C 113.539062 58.808594 113.339844 58.78125 113.058594 58.746094 C 113.445312 57.898438 113.820312 57.070312 114.203125 56.238281 C 115.800781 52.789062 117.394531 49.335938 118.992188 45.886719 C 119.171875 45.5 119.347656 45.332031 119.65625 45.332031 C 119.765625 45.332031 119.886719 45.351562 120.027344 45.386719 C 120.164062 45.421875 120.292969 45.617188 120.363281 45.765625 C 121.738281 48.726562 123.109375 51.691406 124.480469 54.65625 C 125.101562 56 125.722656 57.351562 126.355469 58.722656 L 126.261719 58.773438 C 126.035156 58.796875 125.863281 58.8125 125.726562 58.8125 M 119.6875 46.492188 C 118.496094 49.109375 117.359375 51.59375 116.199219 54.136719 L 123.164062 54.136719 C 122.003906 51.578125 120.867188 49.085938 119.6875 46.492188 "/>
<path style=" stroke:none;fill-rule:nonzero;fill:rgb(10.531616%,18.652344%,31.820679%);fill-opacity:1;" d="M 129.355469 58.769531 L 130.28125 58.769531 L 130.28125 45.496094 L 129.355469 45.496094 Z M 129.355469 58.769531 "/>
</g>
</svg>

<svg xmlns="http://www.w3.org/2000/svg" width="197.24" height="59pt" viewBox="0 0 147.93 59"><defs><clipPath id="a"><path d="M62 3h85.93v37H62Zm0 0"/></clipPath></defs><path d="M113.398 0c1.72.324 7.032 1.379 8.75 1.688.118.023.235.062.395.105-.66.816-1.367 1.543-2.082 2.266-4.602 4.625-9.64 8.738-14.86 12.636-7.113 5.313-14.542 10.13-22.394 14.278-5.777 3.05-11.723 5.699-18.012 7.53a57 57 0 0 1-4.199 1.048l-.191.086c-.024.207-.184.254-.344.312-.328.11-.66.098-.996.098-.59.008-1.184.004-1.774.07-.308.035-.675.137-.921-.207 1.32-.207 2.644-.379 3.953-.668 4.21-.949 8.18-2.527 12.007-4.492 6.762-3.473 12.856-7.922 18.665-12.79 4.375-3.667 8.52-7.581 12.52-11.647" style="stroke:none;fill-rule:nonzero;fill:#d51c2d;fill-opacity:1"/><path d="M56.77 39.914c1.34-.144 2.707.059 4.03-.277.419.082.833.004 1.243-.04 1.285-.132 2.566-.277 3.848-.417l.195.023c.043.106-.05.168-.133.203-.273.114-.566.137-.851.188-.766.136-1.528.293-2.297.402-2.508.395-5.016.75-7.543 1-4.035.402-8.09.621-12.145.738-4.133.118-8.265.13-12.402.055q-7.906-.149-15.805-.613c-4.82-.285-9.64-.621-14.453-1.055-.152-.012-.305-.016-.457-.023V33.98c3.629.75 7.27 1.442 10.926 2.06q5.861.995 11.758 1.788 5.853.788 11.73 1.328 5.29.487 10.598.711c3.34.145 6.683.164 10.027.121.578-.008 1.156-.047 1.73-.074" style="stroke:none;fill-rule:nonzero;fill:#aa1b2c;fill-opacity:1"/><g clip-path="url(#a)"><path d="M133.996 3.129c.867.059 2.953.266 3.117.277 3.996.364 5.39.438 9.387.79.438.038.98.093 1.43.132-.438.36-.313.262-.438.36-5.703 4.351-11.722 8.218-17.926 11.816-10.808 6.262-22.086 11.523-33.882 15.644-8.914 3.114-18.012 5.524-27.332 7.055-1.844.3-3.688.61-5.547.793q1.365-.314 2.73-.629c.133-.031.262-.078.387-.117v-.04l-.031-.03c1.191-.23 2.386-.45 3.574-.692 7.144-1.468 14.012-3.797 20.68-6.734 10.085-4.445 19.44-10.152 28.375-16.578" style="stroke:none;fill-rule:nonzero;fill:#d51c2d;fill-opacity:1"/></g><path d="M89.078 59h-2.027c-.313-.082-.621-.156-.93-.246-3.082-.89-4.957-3.68-4.785-7.117.164-3.375 2.906-6.188 6.203-6.364q.227-.01.45-.011c3.55 0 6.288 2.277 6.808 5.691.61 3.984-1.945 7.438-5.55 7.977zm-.988-12.352c-.395 0-.797.043-1.195.137-2.415.563-4.008 2.684-4.036 5.34.04.367.063.734.121 1.098.454 2.68 2.75 4.425 5.165 4.425.949 0 1.921-.273 2.804-.867 2.004-1.351 2.625-3.355 2.281-5.687a5.195 5.195 0 0 0-5.14-4.446M107.723 58.793c-.258 0-.512-.004-.762-.02-.125-.007-.266-.18-.36-.304-1.117-1.489-2.238-2.973-3.331-4.473-.2-.273-.407-.379-.727-.379h-.035q-.736.017-1.485.016c-.59 0-1.187-.004-1.804-.004v5.133h-1.504V45.527l.09-.047c2.152.016 4.3.016 6.449.067.48.012.973.16 1.43.324 1.687.606 2.578 1.957 2.527 3.766-.05 1.691-1.078 2.988-2.805 3.527-.23.07-.469.129-.773.215 1.363 1.812 2.68 3.566 4.058 5.41-.343 0-.664.004-.968.004m-5.828-11.91c-.747 0-1.493.012-2.239.012-.144 0-.289.011-.453.02V52c0 .07.012.145.024.258.863 0 1.71.015 2.55.015.645 0 1.282-.011 1.918-.043.59-.027 1.211-.242 1.739-.523.925-.488 1.312-1.352 1.25-2.387-.067-1.02-.594-1.75-1.54-2.101a5.3 5.3 0 0 0-1.613-.313 57 57 0 0 0-1.636-.023M23.414 58.8c-.46 0-.84-.179-1.203-.655-2.527-3.29-5.113-6.532-7.68-9.793-.086-.106-.176-.204-.344-.399v10.813H12.73V45.465c.239 0 .47-.012.696-.012q.24 0 .48.027c.164.02.34.176.453.32a3897 3897 0 0 1 6.184 7.86c.617.785 1.234 1.567 1.93 2.445V45.492h1.445v13.25c-.18.035-.348.059-.504.059M31.098 58.805c-.36 0-.72-.004-1.075-.004q-.54-.005-1.074-.004-.408-.001-.816.004h-.02c-.343 0-.418-.133-.418-.457.012-2.086.008-4.176.008-6.262 0-2.043.008-4.086-.008-6.129-.004-.36.086-.5.446-.5a.1.1 0 0 1 .039.004q.627.012 1.254.012h.574c.187 0 .379-.004.566-.004.922 0 1.844.015 2.758.101 2.625.25 4.645 1.551 5.605 4.079.961 2.53.586 4.937-1.269 6.988-1.324 1.469-3.078 2.09-5.023 2.152-.516.016-1.032.02-1.547.02M29.742 46.89c-.16 0-.324.004-.496.004v10.453c.836 0 1.656.03 2.465.03.484 0 .965-.01 1.45-.046 2.671-.191 4.542-2.246 4.683-5.023.133-2.59-1.653-4.903-4.23-5.286-.731-.109-1.477-.12-2.227-.12h-.5589999999999999c-.281 0-.562 0-.844-.008-.078 0-.16-.004-.242-.004M9.637 58.762H0V45.496h9.547v1.356H1.488v4.53H8.7v1.38H1.461v.828c0 1.09.02 2.183-.012 3.273-.012.43.094.575.535.575H2q1.726-.017 3.45-.016c1.202 0 2.405.004 3.605.004h.582zM52.246 58.758h-9.629V45.484h9.54v1.364h-8.055v4.535h7.21v1.379H44.11c-.015.187-.035.32-.035.453-.004 1.246.016 2.492-.008 3.734-.007.39.121.48.48.48h.017q1.717-.006 3.433-.007c1.223 0 2.445.004 3.668.004h.582zM55.383 58.8q-.037 0-.078-.003a7 7 0 0 0-.414-.012c-.223 0-.457.008-.723.008.703-1.563 1.363-3.027 2.027-4.492 1.278-2.824 2.567-5.64 3.825-8.469.167-.375.375-.441.75-.48q.11-.012.203-.012c.535 0 .804.265 1.047.812 1.812 4.094 3.675 8.168 5.52 12.25.05.106.085.22.147.391-.273 0-.535.004-.789.004-.21 0-.418-.004-.625-.02-.117-.011-.265-.18-.324-.312q-.645-1.4-1.25-2.817c-.11-.257-.242-.367-.535-.367h-.008q-1.623.007-3.246.008c-1.086 0-2.168-.004-3.254-.008h-.004c-.293 0-.418.114-.527.371-.398.93-.84 1.844-1.234 2.774-.11.265-.254.375-.508.375m5.539-11.645c-1.027 2.297-2.016 4.496-3.016 6.735h6.012zM73.918 58.898q-.035-.002-.078-.003c-.18-.008-.32-.012-.43-.012h-.062c-.434 0-.328-.016-.649-.762-1.75-4.074-3.484-8.152-5.222-12.23-.051-.121-.094-.25-.16-.426.288 0 .566-.008.831-.008.215 0 .422.004.63.023.136.016.296.23.363.387 1.273 3.059 2.53 6.125 3.796 9.184.247.594.497 1.183.778 1.863.472-1.133.91-2.176 1.344-3.219 1.078-2.61 2.16-5.215 3.23-7.824.11-.27.234-.418.516-.418q.04-.001.086.004.209.017.425.016c.235 0 .477-.008.746-.008-.062.18-.101.32-.16.453-1.773 4.164-3.554 8.324-5.32 12.488-.144.344-.312.489-.664.492M144.688 58.82c-.555 0-.958-.27-1.333-.8-1.07-1.5-2.238-2.934-3.347-4.403-.196-.254-.395-.355-.711-.355h-.02q-.865.012-1.742.011c-.7 0-1.406-.003-2.129-.003v5.484h-.98V45.449c.414.02.828.024 1.242.024.473 0 .945-.008 1.418-.016q.709-.019 1.418-.02c1.02 0 2.039.043 3.055.223 1 .176 1.879.66 2.504 1.508 1.25 1.687.777 4.172-1.047 5.207-.63.355-1.352.55-2.075.836 1.383 1.797 2.813 3.644 4.278 5.547-.125.023-.156.027-.188.031a2 2 0 0 1-.344.031m-9.214-12.375-.051.032v5.863c.973 0 1.937.012 2.898.012q1.15.002 2.285-.032c.493-.011.997-.203 1.454-.402 1.222-.543 1.832-1.68 1.664-2.992-.16-1.227-1.004-2.219-2.414-2.348-1.934-.176-3.891-.101-5.836-.133M125.727 58.813c-.426 0-.497-.157-.79-.801-.382-.856-.785-1.7-1.156-2.559-.117-.273-.261-.387-.57-.387h-.008q-1.762.007-3.523.008-1.764 0-3.528-.011h-.004c-.316 0-.453.128-.57.394-.379.875-.777 1.734-1.168 2.602-.265.582-.34.75-.719.75-.152 0-.351-.028-.632-.063.386-.848.761-1.676 1.144-2.508q2.395-5.175 4.79-10.351c.179-.387.355-.555.663-.555.11 0 .23.02.371.055.137.035.266.23.336.379q2.061 4.441 4.117 8.89c.622 1.344 1.243 2.696 1.875 4.067l-.093.05c-.227.024-.399.04-.535.04m-6.04-12.32c-1.19 2.616-2.328 5.1-3.488 7.644h6.965c-1.16-2.559-2.297-5.051-3.477-7.645M129.355 58.77h.926V45.496h-.926Zm0 0" style="stroke:none;fill-rule:nonzero;fill:#1b3051;fill-opacity:1"/></svg>
